X:693
T:Planxty Lady Blaney
C:O'Carolan
B:O'Neill's 693
Z: 1997 by John Chambers <jc@trillian.mit.edu>
N:"Spirited"
M:2/4
L:1/16
K:C
.e2.g2 gagf|efed c2z2|A2A2 fedc|BcAB G2ed|
|.c2.g2 efge|agfe d2z2|fedc B2c2|d2e2 A2z2|
|"p".G2AG .F2GF|.E2FE D2C2|"f"cd2ed Bc2dc|AB2cB ~A2G2|
|.G2e2f2e2|d4 z2A2|AGFE GFEDC|.c4 .c2z2||
||.G2GE C2G,2|"".C2.E2 .G2.E2|AGAF D2A,2|.D2.F2 .A2.F2|
|EGEG G4|EFAFA A4|ABdBd d4|cdef g3f|
|e2g2 gage|f2c'2 c'bc'd'|c'2b2a2 A2|G2F2E2 e2|
|"p"agfe d2d2|"p"gfed ""c2c2|dedc BcBA|G2G2 ""G2AB|
|cGEG cGEG|c4 z2Bc|dAFA dAFA|d4 z2GF|
|E2G2 c2cB|A2c2f2.e2|dedc cBAB|c4 c2z2|]
